icons/folder-check.svg

<svg xmlns="http://www.w3.org/2000/svg" width="24" height="24" viewBox="0 0 24 24">
  <path d="M11,4 L13,6 L20,6 C21.1045695,6 22,6.8954305 22,8 L22,18 C22,19.1045695 21.1045695,20 20,20 L4,20 C2.8954305,20 2,19.1045695 2,18 L2,6 C2,4.8954305 2.8954305,4 4,4 L11,4 Z M15.1616337,10.2501621 C14.7475097,9.8847586 14.1155778,9.92425435 13.7501742,10.3383784 L13.7501742,10.3383784 L10.9700121,13.488 L10.2498499,12.6717117 L10.1610152,12.5828086 C9.78851489,12.2539073 9.22065875,12.2461999 8.83839043,12.5834955 C8.42426642,12.948899 8.38477067,13.580831 8.75017421,13.994955 L8.75017421,13.994955 L10.2207624,15.6616216 L10.3105198,15.7513955 C10.7177952,16.1104909 11.3507811,16.0805663 11.7204382,15.6616216 L11.7204382,15.6616216 L15.2498499,11.6616216 L15.327,11.5624086 C15.6069605,11.1518544 15.543902,10.5874577 15.1616337,10.2501621 Z"/>
</svg>

<svg xmlns="http://www.w3.org/2000/svg" viewBox="0 0 24 24">
  <path d="m11 4 2 2h7a2 2 0 0 1 2 2v10a2 2 0 0 1-2 2H4a2 2 0 0 1-2-2V6c0-1.1.9-2 2-2h7zm4.16 6.25a1 1 0 0 0-1.41.09l-2.78 3.15-.72-.82-.09-.09A1 1 0 0 0 8.75 14l1.47 1.67.1.1a1 1 0 0 0 1.4-.1l3.53-4 .08-.1a1 1 0 0 0-.17-1.31z"/>
</svg>
